X:1
T:(unknown title)
M:2/4
L:1/4
K:C
 E| A A| c d| e- e| d c| A c| d e| Ac/2-d/2| e d| d c| AG/2-A/2| cc/2-d/2|\
 ed/2-c/2| d e| A||

